X: 793
T: Come West Along the Road   #2
R: reel
%S: s:2 b:10(5+5)
B: Francis O'Neill: "The Dance Music of Ireland" (1907) #793
Z: Frank Nordberg - http://www.musicaviva.com
F: http://www.musicaviva.com/abc/tunes/ireland/oneill-1001/0793/oneill-1001-0793-1.abc
M: C|
L: 1/8
K: G
"A"\
|: d2BG   dGBG | G2(3(Bcd) efg(e | d2)BG dGBG | ABc(d ed) [1 ce :|[2 Bd "B"|: g2(bg) egd(g |
| (3efg) d(g ed)Bd |[1 g2(bg) egdB | BAB(d ed)Bd :|[2 gab(g ef)ge | d(ega) bage |]
